svg/misc/user-suit-female.svg

<svg width="480" height="512" viewBox="0 0 480 512" version="1.1" xmlns="http://www.w3.org/2000/svg"><path fill="currentColor" d="M240,364.865c-18.723,0.194 -36.899,-5.382 -52.908,-14.952l-19.792,-61.913c-5.975,2.319 -23.9,6.203 -53.775,11.653c-29.875,5.449 -56.265,11.71 -79.169,18.782c-22.904,7.073 -34.356,15.015 -34.356,23.826c0,51.448 12.162,96.485 26.989,151.388l0.004,0.016c1.617,5.988 3.266,12.092 4.933,18.335l416.148,0c1.668,-6.243 3.316,-12.348 4.933,-18.335l0.004,-0.017c14.827,-54.903 26.989,-99.939 26.989,-151.387c0,-8.812 -11.452,-16.754 -34.356,-23.826c-22.904,-7.073 -49.294,-13.334 -79.169,-18.783c-29.875,-5.449 -47.8,-9.333 -53.775,-11.652l-19.792,61.913c-16.009,9.569 -34.185,15.146 -52.908,14.952Zm0,12.183c16.313,-0.187 31.786,-3.746 46.815,-10.092l-46.815,121.871l-46.815,-121.871c15.029,6.347 30.502,9.905 46.815,10.092Zm61.763,-133.062c26.032,19.708 50.312,27.567 72.839,23.575c-12.014,-6.985 -19.148,-17.588 -21.401,-31.808c4.005,5.239 9.825,8.607 17.459,10.104c7.634,1.497 15.081,0.998 22.34,-1.497c-12.265,-10.727 -20.4,-21.829 -24.405,-33.305c-4.005,-11.476 -7.009,-27.193 -9.011,-47.15c-1.001,-10.977 -1.69,-26.507 -2.065,-46.59c-0.375,-20.082 -1.564,-35.737 -3.567,-46.963c-2.002,-11.227 -6.007,-21.081 -12.015,-29.563c-7.509,-10.727 -23.028,-20.207 -46.557,-28.44c-23.528,-8.233 -43.178,-12.349 -58.947,-12.349c-21.777,0 -44.68,5.364 -68.709,16.091c-24.03,10.728 -39.173,25.322 -45.431,43.783c-1.752,5.239 -3.191,16.216 -4.318,32.93c-1.126,16.715 -1.939,33.368 -2.44,49.958c-0.501,16.59 -0.751,25.259 -0.751,26.007c-4.505,44.157 -13.767,71.599 -27.784,82.327c3.504,2.245 9.011,2.307 16.52,0.187c7.509,-2.121 14.017,-5.301 19.524,-9.542c-0.25,7.484 -5.882,17.463 -16.896,29.936c6.759,1.248 17.96,-1.122 33.604,-7.11c15.644,-5.987 27.722,-11.725 36.232,-17.213c18.773,10.727 38.923,16.091 60.449,16.091c23.779,0 45.556,-6.487 65.33,-19.459Zm-140.797,-31.808c-2.253,-14.969 -0.751,-40.415 4.505,-76.339c5.257,-35.925 13.016,-56.381 23.279,-61.371c1.752,-0.748 5.006,0.811 9.762,4.678c4.755,3.867 7.384,7.172 7.884,9.916c1.502,7.984 0,15.717 -4.505,23.201c4.756,4.241 13.954,6.861 27.596,7.859c13.642,0.998 26.032,1.06 37.171,0.187c11.138,-0.873 19.586,-1.933 25.343,-3.181c3.004,3.243 5.82,6.736 8.448,10.478c2.628,3.742 4.818,7.921 6.571,12.536c1.752,4.615 3.254,8.607 4.505,11.975c1.252,3.368 2.441,7.983 3.567,13.846c1.126,5.862 1.877,9.979 2.253,12.349c0.375,2.37 0.938,6.611 1.689,12.723c0.751,6.112 1.252,9.667 1.502,10.665c-9.511,13.471 -21.651,24.137 -36.419,31.995c-14.769,7.858 -30.663,11.788 -47.684,11.788c-30.037,0 -55.193,-11.102 -75.467,-33.305Z"></path></svg>

<svg width="480" height="512" viewBox="0 0 480 512" fill="none" xmlns="http://www.w3.org/2000/svg">
<g clip-path="url(#clip0)">
<path fill-rule="evenodd" clip-rule="evenodd" d="M301.763 243.986C327.795 263.694 352.075 271.553 374.602 267.561C362.588 260.576 355.454 249.973 353.201 235.753C357.206 240.992 363.026 244.36 370.66 245.857C378.294 247.354 385.741 246.855 393 244.36C380.735 233.633 372.6 222.531 368.595 211.055C364.59 199.579 361.586 183.862 359.584 163.905C358.583 152.928 357.894 137.398 357.519 117.315C357.144 97.2326 355.955 81.5781 353.952 70.3517C351.95 59.1254 347.945 49.2711 341.937 40.789C334.428 30.0616 318.909 20.5816 295.38 12.349C271.852 4.1163 252.202 0 236.433 0C214.656 0 191.753 5.36369 167.724 16.0911C143.694 26.8185 128.551 41.4127 122.293 59.8738C120.541 65.1127 119.102 76.0896 117.975 92.8044C116.849 109.519 116.036 126.172 115.535 142.762C115.034 159.352 114.784 168.021 114.784 168.769C110.279 212.926 101.017 240.368 87 251.096C90.5043 253.341 96.011 253.403 103.52 251.283C111.029 249.162 117.537 245.982 123.044 241.741C122.794 249.225 117.162 259.204 106.148 271.677C112.907 272.925 124.108 270.555 139.752 264.567C155.396 258.58 167.474 252.842 175.984 247.354C194.757 258.081 214.907 263.445 236.433 263.445C260.212 263.445 281.989 256.958 301.763 243.986ZM160.966 212.178C158.713 197.209 160.215 171.763 165.471 135.839C170.728 99.9144 178.487 79.4575 188.75 74.468C190.502 73.7196 193.756 75.2788 198.512 79.1457C203.267 83.0125 205.896 86.3181 206.396 89.0623C207.898 97.0455 206.396 104.779 201.891 112.263C206.647 116.504 215.845 119.124 229.487 120.122C243.129 121.12 255.519 121.182 266.658 120.309C277.796 119.436 286.244 118.376 292.001 117.128C295.005 120.371 297.821 123.864 300.449 127.606C303.077 131.348 305.267 135.527 307.02 140.142C308.772 144.757 310.274 148.749 311.525 152.117C312.777 155.485 313.966 160.1 315.092 165.963C316.218 171.825 316.969 175.942 317.345 178.312C317.72 180.682 318.283 184.923 319.034 191.035C319.785 197.147 320.286 200.702 320.536 201.7C311.025 215.171 298.885 225.837 284.117 233.695C269.348 241.553 253.454 245.483 236.433 245.483C206.396 245.483 181.24 234.381 160.966 212.178Z" fill="black"/>
<path fill-rule="evenodd" clip-rule="evenodd" d="M240 364.865C221.277 365.059 203.101 359.483 187.092 349.913L167.3 288C161.325 290.319 143.4 294.203 113.525 299.653C83.65 305.102 57.2604 311.363 34.3562 318.435C11.4521 325.508 0 333.45 0 342.261C0 393.709 12.1621 438.746 26.9886 493.649L26.9931 493.665C28.61 499.653 30.2585 505.757 31.9264 512L448.074 512C449.742 505.757 451.39 499.652 453.007 493.665L453.011 493.648C467.838 438.745 480 393.709 480 342.261C480 333.449 468.548 325.507 445.644 318.435C422.74 311.362 396.35 305.101 366.475 299.652C336.6 294.203 318.675 290.319 312.7 288L292.908 349.913C276.899 359.482 258.723 365.059 240 364.865ZM240 377.048C223.687 376.861 208.214 373.303 193.185 366.956L240 488.827L286.815 366.956C271.786 373.302 256.313 376.861 240 377.048Z" fill="black"/>
</g>
<defs>
<clipPath id="clip0">
<rect width="480" height="512" fill="white"/>
</clipPath>
</defs>
</svg>
